X:35
T:Memories of Old Fiddlers Jig
R:Jig
C:Bruce Osborne  --  Feb.7 1991
L:1/8
M:6/8
Z:abc by Bruce Osborne - bosborne@kos.net
K:A
efg|a2 e c2 A|E2 A cea|g2 B B c2|d4 Bc|
dcd efe|gfe efe|efe Bcd|c2 e efg|
a2 e c2 A|E2 A cea|g2 B B c2|d4 Bc|
dcd efe|gfe efe|efe dcB|A4:|
|:ED|CEA, A,CE|Ac[ce] [c2a2] [ce]|[ce][ca][ce] [c2a2] [ce]|[B4e4] GA|
BcB BcB|EGB g2 f|efe Bcd|c4 ED|
CEA, A,CE|Ac[ce] [c2a2] [ce]|[ce][ca][ce] [c2a2] [ce]|[F6d6]|
[Fd][Fe][Fd] [F2d2] [Fd]|DEA c2 e|gfe dcB|A4:|
